assets/Cricket/Flat/cricket_flat.svg

<svg width="32" height="32" viewBox="0 0 32 32" fill="none" xmlns="http://www.w3.org/2000/svg">
<path d="M7 10.85V12.5351C7.58835 12.1948 8.27143 12 9 12C10.7992 12 12.9842 12.6633 13.7332 14.53H15.5514L15.5 14L20.2421 12L22.69 9.25009C22.97 8.94009 23.44 8.91009 23.75 9.19009C23.9337 9.35342 24.0202 9.59086 24 9.8236V12L25 14.5L24.754 15.1149C26.0539 15.771 27.0578 16.9288 27.51 18.33C27.77 19.16 27.15 20 26.28 20H24V24.25C24 24.66 23.66 25 23.25 25C22.84 25 22.5 24.66 22.5 24.25V20H18.0191L16.85 21.9601C16.27 22.9401 15.01 23.2701 14.02 22.6901C13.0856 22.1371 12.7421 20.9659 13.2149 20H11.11V24.25C11.11 24.66 10.78 25 10.36 25C9.94998 25 9.60999 24.66 9.60999 24.25V20L9 20C8.83067 20 8.66379 19.9895 8.49999 19.9691V21.46C8.49999 22.09 8.24999 22.68 7.80999 23.13L6.13999 24.8C5.98999 24.94 5.79999 25.01 5.60999 25.01C5.41999 25.01 5.22999 24.94 5.07999 24.79C4.78999 24.5 4.78999 24.02 5.07999 23.73L6.74999 22.06C6.90999 21.9 6.99999 21.69 6.99999 21.46V19.4649C5.80439 18.7732 5 17.4806 5 16C5 14.9856 5.37764 14.0593 6 13.3542V10.85C6 9.28 7.28 8 8.85 8H19.5C19.78 8 20 8.22 20 8.5C20 8.78 19.78 9 19.5 9H8.85C7.83 9 7 9.83 7 10.85Z" fill="#86D72F"/>
<path d="M5.96 12C6.53 12 7 12.47 7 13.05V18.95C7 19.53 6.53 20 5.96 20C3.77 20 2 18.21 2 16C2 13.79 3.77 12 5.96 12Z" fill="#C3EF3C"/>
<path d="M9.13 12H20.2421L15.7911 17H12.874C12.9562 16.6804 13 16.3453 13 16C13 13.8344 11.279 12.0707 9.13 12.0021V12Z" fill="#C3EF3C"/>
<path d="M22.5 17H19.8084L22.5 12.4873V17Z" fill="#C3EF3C"/>
<path d="M24 12V17H24.28C26.55 17 28.65 15.81 29.82 13.86C30.31 13.04 29.72 12 28.77 12H24Z" fill="#C3EF3C"/>
<path d="M4.5 15C4.22 15 4 15.22 4 15.5V16.5C4 16.78 4.22 17 4.5 17C4.78 17 5 16.78 5 16.5V15.5C5 15.22 4.78 15 4.5 15Z" fill="#212121"/>
</svg>

<svg xmlns="http://www.w3.org/2000/svg" width="32" height="32" fill="none"><path fill="#86D72F" d="M7 10.85v1.685A3.982 3.982 0 0 1 9 12c1.8 0 3.984.663 4.733 2.53h1.818L15.5 14l4.742-2 2.448-2.75c.28-.31.75-.34 1.06-.06.184.163.27.4.25.634V12l1 2.5-.246.615a5.508 5.508 0 0 1 2.756 3.215c.26.83-.36 1.67-1.23 1.67H24v4.25c0 .41-.34.75-.75.75s-.75-.34-.75-.75V20h-4.48l-1.17 1.96A2.068 2.068 0 0 1 13.215 20H11.11v4.25a.749.749 0 1 1-1.5 0V20H9c-.17 0-.336-.01-.5-.03v1.49c0 .63-.25 1.22-.69 1.67L6.14 24.8c-.15.14-.34.21-.53.21s-.38-.07-.53-.22a.754.754 0 0 1 0-1.06l1.67-1.67a.84.84 0 0 0 .25-.6v-1.995a3.999 3.999 0 0 1-1-6.11V10.85C6 9.28 7.28 8 8.85 8H19.5c.28 0 .5.22.5.5s-.22.5-.5.5H8.85C7.83 9 7 9.83 7 10.85Z"/><path fill="#C3EF3C" d="M5.96 12c.57 0 1.04.47 1.04 1.05v5.9C7 19.53 6.53 20 5.96 20 3.77 20 2 18.21 2 16s1.77-4 3.96-4ZM9.13 12h11.112l-4.45 5h-2.918a4 4 0 0 0-3.744-4.998V12ZM22.5 17h-2.692l2.692-4.513V17ZM24 12v5h.28c2.27 0 4.37-1.19 5.54-3.14.49-.82-.1-1.86-1.05-1.86H24Z"/><path fill="#212121" d="M4.5 15c-.28 0-.5.22-.5.5v1c0 .28.22.5.5.5s.5-.22.5-.5v-1c0-.28-.22-.5-.5-.5Z"/></svg>
